svg/cards_playing_heart.svg

<svg xmlns="http://www.w3.org/2000/svg" viewBox="0 0 24 24"><path d="M17 2H7c-1.1 0-2 .9-2 2v16c0 1.1.9 2 2 2h10c1.1 0 2-.9 2-2V4c0-1.1-.9-2-2-2m-4.4 13.8-.6.5-.6-.5c-2-1.9-3.4-3.1-3.4-4.6C8 10 9 9 10.2 9c.7 0 1.4.3 1.8.8.4-.5 1.1-.8 1.8-.8 1.2 0 2.2.9 2.2 2.2 0 1.5-1.4 2.7-3.4 4.6"/></svg>

<svg xmlns="http://www.w3.org/2000/svg" id="mdi-cards-playing-heart" viewBox="0 0 24 24"><path d="M17 2H7C5.9 2 5 2.9 5 4V20C5 21.1 5.9 22 7 22H17C18.1 22 19 21.1 19 20V4C19 2.9 18.1 2 17 2M12.6 15.8L12 16.3L11.4 15.8C9.4 13.9 8 12.7 8 11.2C8 10 9 9 10.2 9C10.9 9 11.6 9.3 12 9.8C12.4 9.3 13.1 9 13.8 9C15 9 16 9.9 16 11.2C16 12.7 14.6 13.9 12.6 15.8Z" /></svg>
